src/Components/Landing/assets/Ninja img.svg

<svg width="263" height="235" viewBox="0 0 263 235" fill="none" xmlns="http://www.w3.org/2000/svg">
<path d="M83.1733 55.2545L84.9086 57.3579C86.8232 58.4604 88.9374 57.9121 90.9619 58.1123C92.2431 58.237 93.7528 57.4914 94.7217 58.9826C94.8518 59.6876 94.881 60.4076 94.8085 61.1209C94.7477 61.6866 94.7073 62.2524 94.6176 62.8152C93.669 65.0347 94.5019 67.5762 93.3393 69.7521C91.6763 71.0548 89.9467 72.2879 88.3647 73.6863C86.988 74.9019 84.4169 75.427 86.6959 78.4676C89.0617 81.6212 90.2793 79.3205 91.9481 78.16C92.3848 77.8699 92.836 77.5798 93.5938 77.0663C93.4983 81.4675 92.7261 85.4625 93.2438 89.5127C93.7875 93.6383 95.7108 97.204 97.6515 101.141C89.3365 99.9805 81.4004 98.6459 73.4122 97.8161C65.8925 97.0357 60.3974 101.237 59.1942 108.081C57.8204 115.914 62.769 122.085 71.3414 123.289C80.7178 124.606 90.074 126.104 99.4736 127.241C102.195 127.569 102.12 128.834 101.692 130.722C101.57 133.586 104.075 133.624 105.741 134.152C119.528 138.46 133.231 143.047 147.035 147.3C153.534 149.302 159.926 151.626 166.485 153.439C168.539 154.02 171.113 154.26 169.834 157.87C167.772 163.756 167.937 163.835 163.723 162.541C143.397 156.364 123.267 149.557 102.936 143.392C101.255 142.882 99.5603 141.672 97.6949 142.934C97.854 146.444 95.4534 145.713 93.4347 145.446C79.826 143.638 66.2222 141.813 52.6232 139.972C43.5071 138.739 34.4025 137.378 25.2806 136.267C17.3849 135.306 10.9325 140.07 9.06415 147.933C8.45389 149.993 8.19649 152.052 9.041 154.118C10.7763 161.189 15.0452 164.96 22.2235 165.929C51.1087 169.834 79.9899 173.751 108.867 177.679C113.663 178.326 118.122 180.073 122.915 181.602C120.291 182.6 117.79 183.134 115.699 184.689C107.262 190.964 107.421 203.483 116.347 209.213C124.67 214.555 133.202 219.597 141.844 224.41C151.536 229.809 162.592 223.949 163.96 212.907C165.649 199.271 167.752 185.699 168.73 171.999C168.828 170.638 168.874 169.167 169.999 168.05C175.833 177.227 181.802 178.651 191.43 173.272C196.856 170.232 202.342 167.299 207.728 164.189C216.216 159.28 217.379 149.584 210.224 142.85C204.15 137.131 197.903 131.599 191.734 125.985C191.72 124.131 189.848 123.664 188.871 122.135C196.518 121.226 203.369 118.818 208.566 112.938C209.894 111.435 211.132 109.935 211.409 107.866C215.065 100.903 215.109 93.1451 216.106 85.6163C217.483 75.2413 218.709 64.849 220.014 54.4654C216.763 51.9993 212.783 52.1443 209.067 51.683C176.171 47.6619 143.325 43.2694 110.444 39.0683C106.635 38.5838 102.693 37.02 98.7794 38.8391C97.7498 43.809 98.227 49.0313 96.2343 53.8358C91.7804 53.3107 87.2339 52.0573 83.1733 55.2545Z" fill="#1A1A1A"/>
<path d="M98.7912 38.8336C131.762 43.1139 164.733 47.3914 197.704 51.6659C205.139 52.6291 212.584 53.5314 220.022 54.4598C225.035 52.7858 230.293 53.4328 235.423 52.9106C240.6 52.3825 245.835 52.2346 251.027 52.0402C252.901 51.9676 253.878 51.4918 253.687 49.3362C253.306 44.9843 252.982 40.6324 252.904 36.2631C252.854 33.5446 252.091 32.6336 249.167 32.9063C244.565 33.3299 239.912 33.1384 235.284 33.1964C230.859 32.326 226.408 32.8599 221.98 33.002C220.824 33.0369 219.918 33.6664 219.111 34.5397C217.816 35.9439 218.339 33.8811 217.738 33.6519C216.711 33.2632 215.65 32.9063 214.626 32.4914C214.362 32.3986 214.093 32.3192 213.822 32.2535C189.186 28.7227 164.472 25.7982 139.805 22.5255C128.873 21.0749 117.897 19.9521 106.993 18.2897C105.192 17.9996 103.384 17.4396 101.556 18.1794C100.179 25.0003 99.4592 31.9141 98.7912 38.8336Z" fill="#E9521E"/>
<path d="M101.527 18.1708C106.71 20.3467 112.315 20.2017 117.723 20.9183C149.826 25.1831 181.973 29.2246 214.102 33.3444C215.175 33.5446 216.566 34.061 216.916 32.593C217.391 30.594 215.835 29.6424 214.279 28.8736C208.205 22.2471 200.107 20.7065 191.705 19.6562C163.113 16.0896 134.536 12.4147 105.975 8.6314C103.479 8.30065 102.325 8.74455 102.253 11.4282C102.198 13.6796 101.785 15.9252 101.527 18.1708Z" fill="#1A1A1A"/>
<path d="M97.6951 142.955C116.899 149.036 136.105 155.117 155.313 161.198C158.94 162.358 162.61 163.348 166.208 164.572C168.62 165.393 169.678 164.607 169.878 162.178C169.971 161.07 170.069 159.904 170.48 158.891C172.438 154.095 172.504 154.058 167.298 152.416C147.683 146.23 128.048 140.108 108.448 133.879C106.097 133.131 103.361 133.029 101.698 130.734C99.7485 134.61 98.6003 138.751 97.6951 142.955Z" fill="#242424"/>
<path d="M214.284 28.8735C214.656 29.4602 215.058 30.0268 215.49 30.5708C217.306 32.6481 216.511 33.3879 214.107 33.3444C217.228 36.1644 220.638 34.3047 223.958 34.0146C227.718 33.6751 231.591 34.7863 235.266 33.2051C237.172 30.594 238.908 27.8146 241.031 25.3717C242.991 23.1261 242.28 21.9482 240.14 20.5121C236.729 18.2642 233.434 15.8433 230.269 13.2589C228.134 11.4833 226.925 11.5907 225.312 13.9204C221.786 19.0005 217.977 23.8979 214.284 28.8735Z" fill="#CB471B"/>
<path d="M211.41 107.86C204.246 117.464 198.433 120.536 186.355 120.896C187.771 122.953 189.605 124.687 191.734 125.985C201.568 121.943 211.401 117.937 221.191 113.828C222.637 113.222 223.835 113.059 225.09 114.034C225.538 109.865 224.222 106.418 220.914 103.778C218.331 106.5 215.141 107.808 211.41 107.86Z" fill="#CECDCC"/>
<path d="M220.913 103.773L225.089 114.029C226.043 116.37 226.989 118.714 227.955 121.05C228.681 122.791 228.904 124.624 231.935 123.472C235.177 122.242 234.113 120.687 233.277 118.732C232.285 116.411 231.35 114.055 230.384 111.714C231.4 108.128 228.765 105.525 227.903 102.43C227.6 101.653 227.018 101.019 226.272 100.651C225.098 97.9355 223.698 95.2866 222.801 92.4782C222.084 90.2036 220.927 90.4879 219.348 91.1871C217.821 91.866 216.167 92.1939 217.416 94.6947C218.865 97.5931 219.776 100.744 220.913 103.773Z" fill="#1C1C1C"/>
<path d="M253.213 101.263C254.992 98.7302 254.948 96.209 252.678 94.1084C249.621 91.2681 246.486 92.504 243.464 94.3812C245.497 98.3994 249.019 100.308 253.213 101.263Z" fill="#383837"/>
<path d="M91.0801 47.5635C90.0389 45.9185 89.0382 44.23 87.2132 43.3016C83.1642 41.2504 79.6068 43.6236 79.0428 48.7415C83.2336 50.166 87.3145 50.4793 91.0801 47.5635Z" fill="#3A3A38"/>
<path d="M226.825 102.284L230.391 111.713L236.354 108.867C234.417 104.881 231.111 102.847 226.825 102.284Z" fill="#3C3B37"/>
<path d="M243.926 106.03L246.671 104.782C244.357 100.515 240.216 98.7883 236.01 97.1636L232.884 98.4691C235.66 102.31 239.519 104.573 243.926 106.03Z" fill="#3F3D36"/>
<path d="M238.63 108.119L241.673 106.999C239.261 102.74 235.119 100.883 230.859 99.1855L228.184 100.41C230.558 104.475 234.665 106.195 238.63 108.119Z" fill="#3D3B35"/>
<path d="M241.256 95.0918L237.982 96.319C240.585 100.346 244.695 102.22 248.869 104.007L251.839 102.748C249.282 98.8489 245.239 97.0124 241.256 95.0918Z" fill="#3E3B34"/>
<path d="M79.7717 50.9229C80.0259 51.8341 80.6164 52.6142 81.4231 53.1046C85.9262 53.975 90.4062 54.6539 94.5449 51.8194L92.5754 49.391C88.2371 49.3678 83.7629 48.0825 79.7717 50.9229Z" fill="#3A3936"/>
<path d="M94.5453 51.8198C90.2505 53.0413 85.7705 52.4001 81.4235 53.1051C81.5508 54.1931 82.1813 54.872 83.1588 55.2549C87.4566 54.225 91.9626 55.0925 96.2344 53.8304C95.9162 52.9571 95.4275 52.2231 94.5453 51.8198Z" fill="#D39312"/>
<path d="M79.7716 50.9231C83.9537 49.6872 88.4337 50.9231 92.5811 49.3884C92.5144 48.9781 92.3402 48.593 92.0765 48.2723C91.8128 47.9517 91.4689 47.7071 91.08 47.5635L79.0428 48.7385C78.8519 49.6147 78.8895 50.4096 79.7716 50.9231Z" fill="#D39312"/>
<path d="M230.853 99.1859L241.664 106.999L243.926 106.03L232.883 98.4692C232.14 98.5215 231.377 98.5099 230.853 99.1859Z" fill="#EBA20F"/>
<path d="M238.631 108.119L228.187 100.41L226.284 100.663L226.831 102.281L236.355 108.867C237.208 108.908 238.09 109.041 238.631 108.119Z" fill="#E79E0B"/>
<path d="M248.869 104.008L237.986 96.3193L236.011 97.1636L246.671 104.782C247.443 104.64 248.34 104.849 248.869 104.008Z" fill="#F1A306"/>
<path d="M241.257 95.0922L251.839 102.749C252.493 102.432 253.106 102.081 253.213 101.263L243.463 94.3813C242.68 94.4365 241.795 94.2421 241.257 95.0922Z" fill="#ECA00B"/>
<path d="M95.8206 61.2867L95.8467 58.6349C92.6017 57.7065 89.348 56.694 86.4008 59.4096L88.4745 62.0787C91.0052 62.5719 93.5098 62.8447 95.8206 61.2867Z" fill="#464135"/>
<path d="M86.401 59.4095C89.5043 58.6029 92.6828 58.7248 95.8468 58.6348C97.024 56.3979 95.3118 56.6823 94.1115 56.7403C91.0458 56.8912 87.9859 57.1465 84.9231 57.3583C84.9491 58.3853 85.5478 58.9859 86.401 59.4095Z" fill="#E99F0B"/>
<path d="M93.3454 69.7494C95.8067 68.0087 94.485 64.9681 95.7344 62.8154C93.5508 61.5882 91.6506 62.1394 89.9124 63.738C90.7222 65.9285 93.733 66.8743 93.3454 69.7494Z" fill="#494438"/>
<path d="M89.9116 63.7379L95.7336 62.8124L95.8203 61.2863C93.3504 61.356 90.8342 60.9962 88.4742 62.0755C88.5446 62.4558 88.7149 62.8105 88.9676 63.1027C89.2203 63.395 89.5462 63.6142 89.9116 63.7379Z" fill="#DB9812"/>
<path d="M100.963 65.4439C102.12 71.3044 106.374 75.6593 112.242 76.4281C131.082 78.8884 149.927 81.3051 168.796 83.513C177.348 84.511 183.442 79.8922 184.376 72.3663C184.032 65.9081 179.769 61.4256 172.645 60.0504C162.233 58.0398 151.651 57.3464 141.187 55.7623C132.95 54.5148 124.67 53.6125 116.407 52.5709C109.295 51.6745 103.664 54.6889 101.31 60.1578C100.552 61.9159 100.225 63.6219 100.963 65.4439Z" fill="#F7B180"/>
<path d="M100.963 65.4442C101.252 57.4686 108.462 52.4233 117.055 53.665C129.954 55.5306 142.908 57.0131 155.833 58.719C161.811 59.5053 167.844 60.0972 173.716 61.3998C179.416 62.6648 182.736 66.8455 184.385 72.3666C186.849 64.8813 180.148 56.7868 173.661 55.9744C161.025 54.3962 148.403 52.6844 135.773 51.022C129.879 50.2473 123.988 49.4524 118.096 48.6719C107.974 47.3258 101.032 52.7801 100.312 62.6677C100.237 63.6657 100.113 64.6637 100.963 65.4442Z" fill="#F0826A"/>
<path d="M180.171 150.233L176.553 147.042C175.685 149.055 174.488 150.651 175.156 153.088L180.171 150.233Z" fill="#E1E1E1"/>
<path d="M150.498 34.8151C152.059 34.5394 154.547 35.7841 154.529 32.671C154.529 30.1034 152.484 30.0018 150.651 29.7697C137.876 28.1305 125.098 26.5145 112.327 24.8376C110.62 24.6171 109.105 24.6287 108.755 26.6973C108.434 28.5976 109.391 29.5057 111.32 29.7494C122.154 31.1246 132.971 32.671 143.822 33.9128C146.055 34.1768 148.158 35.3547 150.498 34.8151Z" fill="#EE7142"/>
<path d="M190.895 46.7512C191.225 46.7715 192.382 46.3769 192.686 44.8364C193.007 43.2174 192.446 41.996 190.681 41.7407C182.78 40.6034 174.881 39.4458 166.966 38.4565C165.412 38.2621 164.308 39.5154 164.128 41.0531C163.94 42.6488 165.091 43.171 166.52 43.3741C174.291 44.4215 182.057 45.5182 190.895 46.7512Z" fill="#EE7142"/>
<path d="M134.173 69.523C138.561 75.6359 143.477 75.5518 146.636 69.1922C142.488 68.6955 138.29 68.8069 134.173 69.523Z" fill="#404249"/>
<path d="M123.276 68.29L113.29 64.91C110.976 64.1266 110.765 65.4902 111.332 67.0656C112.506 70.3499 114.892 71.5829 118.339 70.7589C119.991 70.3644 121.599 69.9611 123.276 68.29Z" fill="#3C3F49"/>
</svg>

<svg width="263" height="235" fill="none" xmlns="http://www.w3.org/2000/svg"><path d="M83.173 55.255l1.736 2.103c1.914 1.102 4.028.554 6.053.754 1.281.125 2.79-.62 3.76.87.13.706.159 1.426.087 2.139-.061.566-.102 1.131-.191 1.694-.949 2.22-.116 4.761-1.279 6.937-1.663 1.303-3.392 2.536-4.974 3.934-1.377 1.216-3.948 1.741-1.67 4.782 2.367 3.153 3.584.852 5.253-.308.437-.29.888-.58 1.646-1.094-.096 4.401-.868 8.397-.35 12.447.543 4.125 2.467 7.691 4.407 11.628-8.314-1.16-16.25-2.495-24.239-3.325-7.52-.78-13.015 3.421-14.218 10.265-1.374 7.833 3.575 14.004 12.147 15.208 9.377 1.317 18.733 2.815 28.133 3.952 2.721.328 2.646 1.593 2.218 3.481-.122 2.864 2.383 2.902 4.049 3.43 13.787 4.308 27.49 8.895 41.294 13.148 6.499 2.002 12.891 4.326 19.45 6.139 2.054.581 4.628.821 3.349 4.431-2.062 5.886-1.897 5.965-6.111 4.671-20.326-6.177-40.456-12.984-60.787-19.149-1.681-.51-3.376-1.72-5.241-.458.159 3.51-2.242 2.779-4.26 2.512a16624.64 16624.64 0 01-40.812-5.474c-9.116-1.233-18.22-2.594-27.342-3.705-7.896-.961-14.348 3.803-16.217 11.666-.61 2.06-.868 4.119-.023 6.185 1.735 7.071 6.004 10.842 13.183 11.811 28.885 3.905 57.766 7.822 86.643 11.75 4.796.647 9.255 2.394 14.048 3.923-2.624.998-5.125 1.532-7.216 3.087-8.437 6.275-8.278 18.794.648 24.524 8.323 5.342 16.855 10.384 25.497 15.197 9.692 5.399 20.748-.461 22.116-11.503 1.689-13.636 3.792-27.208 4.77-40.908.098-1.361.144-2.832 1.269-3.949 5.834 9.177 11.803 10.601 21.431 5.222 5.426-3.04 10.912-5.973 16.298-9.083 8.488-4.909 9.651-14.605 2.496-21.339-6.074-5.719-12.321-11.251-18.49-16.865-.014-1.854-1.886-2.321-2.863-3.85 7.647-.909 14.498-3.317 19.695-9.197 1.328-1.503 2.566-3.003 2.843-5.072 3.656-6.963 3.7-14.72 4.697-22.25 1.377-10.375 2.603-20.767 3.908-31.15-3.251-2.467-7.231-2.322-10.947-2.783-32.896-4.021-65.742-8.414-98.623-12.615-3.809-.484-7.751-2.048-11.665-.229-1.03 4.97-.552 10.192-2.545 14.997-4.454-.525-9-1.779-13.06 1.419z" fill="#1A1A1A"/><path d="M98.791 38.834c32.971 4.28 65.942 8.557 98.913 12.832 7.435.963 14.88 1.865 22.318 2.794 5.013-1.674 10.271-1.027 15.401-1.55 5.177-.527 10.412-.675 15.604-.87 1.874-.072 2.851-.548 2.66-2.704-.381-4.352-.705-8.704-.783-13.073-.05-2.718-.813-3.63-3.737-3.357-4.602.424-9.255.232-13.883.29-4.425-.87-8.876-.336-13.304-.194-1.156.035-2.062.664-2.869 1.538-1.295 1.404-.772-.659-1.373-.888-1.027-.389-2.088-.746-3.112-1.16a8.383 8.383 0 00-.804-.238c-24.636-3.531-49.35-6.456-74.017-9.728-10.932-1.451-21.908-2.574-32.812-4.236-1.801-.29-3.609-.85-5.437-.11-1.377 6.82-2.097 13.734-2.765 20.654z" fill="#E9521E"/><path d="M101.527 18.17c5.183 2.177 10.788 2.032 16.196 2.748 32.103 4.265 64.25 8.307 96.379 12.426 1.073.2 2.464.717 2.814-.751.475-1.999-1.081-2.95-2.637-3.72-6.074-6.626-14.172-8.167-22.574-9.217a11377.722 11377.722 0 01-85.73-11.025c-2.496-.33-3.65.114-3.722 2.797-.055 2.252-.468 4.497-.726 6.743z" fill="#1A1A1A"/><path d="M97.695 142.955l57.618 18.243c3.627 1.16 7.297 2.15 10.895 3.374 2.412.821 3.47.035 3.67-2.394.093-1.108.191-2.274.602-3.287 1.958-4.796 2.024-4.833-3.182-6.475-19.615-6.186-39.25-12.308-58.85-18.537-2.351-.748-5.087-.85-6.75-3.145-1.95 3.876-3.098 8.017-4.003 12.221z" fill="#242424"/><path d="M214.284 28.873c.372.587.774 1.154 1.206 1.698 1.816 2.077 1.021 2.817-1.383 2.773 3.121 2.82 6.531.96 9.851.67 3.76-.339 7.633.772 11.308-.809 1.906-2.611 3.642-5.39 5.765-7.833 1.96-2.246 1.249-3.424-.891-4.86a120.068 120.068 0 01-9.871-7.253c-2.135-1.776-3.344-1.668-4.957.661-3.526 5.08-7.335 9.978-11.028 14.954z" fill="#CB471B"/><path d="M211.41 107.86c-7.164 9.604-12.977 12.676-25.055 13.036a17.746 17.746 0 005.379 5.089c9.834-4.042 19.667-8.048 29.457-12.157 1.446-.606 2.644-.769 3.899.206.448-4.169-.868-7.616-4.176-10.256-2.583 2.722-5.773 4.03-9.504 4.082z" fill="#CECDCC"/><path d="M220.913 103.773l4.176 10.256c.954 2.341 1.9 4.685 2.866 7.021.726 1.741.949 3.574 3.98 2.422 3.242-1.23 2.178-2.785 1.342-4.74-.992-2.321-1.927-4.677-2.893-7.018 1.016-3.586-1.619-6.189-2.481-9.284a3.333 3.333 0 00-1.631-1.779c-1.174-2.715-2.574-5.364-3.471-8.173-.717-2.274-1.874-1.99-3.453-1.29-1.527.678-3.181 1.006-1.932 3.507 1.449 2.898 2.36 6.049 3.497 9.078z" fill="#1C1C1C"/><path d="M253.213 101.263c1.779-2.533 1.735-5.054-.535-7.155-3.057-2.84-6.192-1.604-9.214.273 2.033 4.018 5.555 5.927 9.749 6.882z" fill="#383837"/><path d="M91.08 47.563c-1.041-1.645-2.042-3.333-3.867-4.261-4.049-2.052-7.606.322-8.17 5.44 4.19 1.424 8.271 1.737 12.037-1.178z" fill="#3A3A38"/><path d="M226.825 102.284l3.566 9.429 5.963-2.846c-1.937-3.986-5.243-6.02-9.529-6.583z" fill="#3C3B37"/><path d="M243.926 106.03l2.745-1.248c-2.314-4.267-6.455-5.994-10.661-7.618l-3.126 1.305c2.776 3.841 6.635 6.104 11.042 7.561z" fill="#3F3D36"/><path d="M238.63 108.119l3.043-1.12c-2.412-4.259-6.554-6.116-10.814-7.813l-2.675 1.224c2.374 4.065 6.481 5.785 10.446 7.709z" fill="#3D3B35"/><path d="M241.256 95.092l-3.274 1.227c2.603 4.027 6.713 5.901 10.887 7.688l2.97-1.259c-2.557-3.9-6.6-5.736-10.583-7.656z" fill="#3E3B34"/><path d="M79.772 50.923a3.724 3.724 0 001.651 2.182c4.503.87 8.983 1.549 13.122-1.286l-1.97-2.428c-4.338-.023-8.812-1.308-12.803 1.532z" fill="#3A3936"/><path d="M94.545 51.82c-4.294 1.221-8.775.58-13.121 1.285.127 1.088.757 1.767 1.735 2.15 4.298-1.03 8.804-.163 13.075-1.425-.318-.873-.806-1.607-1.689-2.01zM79.772 50.923c4.182-1.236 8.662 0 12.81-1.535a2.351 2.351 0 00-1.502-1.825l-12.037 1.175c-.191.877-.154 1.672.729 2.185z" fill="#D39312"/><path d="M230.853 99.186l10.811 7.813 2.262-.969-11.043-7.56c-.743.052-1.506.04-2.03.716z" fill="#EBA20F"/><path d="M238.631 108.119l-10.444-7.709-1.903.253.547 1.618 9.524 6.586c.853.041 1.735.174 2.276-.748z" fill="#E79E0B"/><path d="M248.869 104.008l-10.883-7.689-1.975.845 10.66 7.618c.772-.142 1.669.067 2.198-.774z" fill="#F1A306"/><path d="M241.257 95.092l10.582 7.657c.654-.317 1.267-.668 1.374-1.486l-9.75-6.882c-.783.055-1.668-.139-2.206.711z" fill="#ECA00B"/><path d="M95.82 61.287l.027-2.652c-3.245-.928-6.499-1.941-9.446.775l2.074 2.669c2.53.493 5.035.766 7.346-.792z" fill="#464135"/><path d="M86.401 59.41c3.103-.807 6.282-.685 9.446-.775 1.177-2.237-.535-1.953-1.735-1.895-3.066.151-6.126.407-9.189.618.026 1.027.625 1.628 1.478 2.052z" fill="#E99F0B"/><path d="M93.345 69.75c2.462-1.741 1.14-4.782 2.39-6.935-2.184-1.227-4.084-.676-5.823.923.81 2.19 3.821 3.136 3.433 6.011z" fill="#494438"/><path d="M89.912 63.738l5.822-.926.086-1.526c-2.47.07-4.986-.29-7.346.79a2.176 2.176 0 001.438 1.662z" fill="#DB9812"/><path d="M100.963 65.444c1.157 5.86 5.411 10.215 11.279 10.984 18.84 2.46 37.685 4.877 56.554 7.085 8.552.998 14.646-3.62 15.58-11.147-.344-6.458-4.607-10.94-11.731-12.316-10.412-2.01-20.994-2.704-31.458-4.288-8.237-1.247-16.517-2.15-24.78-3.191-7.112-.896-12.743 2.118-15.097 7.587-.758 1.758-1.085 3.464-.347 5.286z" fill="#F7B180"/><path d="M100.963 65.444c.289-7.975 7.499-13.02 16.092-11.779 12.899 1.866 25.853 3.348 38.778 5.054 5.978.786 12.011 1.378 17.883 2.68 5.7 1.266 9.02 5.447 10.669 10.968 2.464-7.486-4.237-15.58-10.724-16.393-12.636-1.578-25.258-3.29-37.888-4.952-5.894-.775-11.785-1.57-17.677-2.35-10.122-1.346-17.064 4.108-17.784 13.996-.075.998-.199 1.996.651 2.776z" fill="#F0826A"/><path d="M180.171 150.233l-3.618-3.191c-.868 2.013-2.065 3.609-1.397 6.046l5.015-2.855z" fill="#E1E1E1"/><path d="M150.498 34.815c1.561-.276 4.049.97 4.031-2.144 0-2.568-2.045-2.67-3.878-2.901-12.775-1.64-25.553-3.255-38.324-4.932-1.707-.22-3.222-.21-3.572 1.86-.321 1.9.636 2.808 2.565 3.051 10.834 1.376 21.651 2.922 32.502 4.164 2.233.264 4.336 1.442 6.676.902zM190.895 46.751c.33.02 1.487-.374 1.791-1.915.321-1.619-.24-2.84-2.005-3.095-7.901-1.138-15.8-2.295-23.715-3.285-1.554-.194-2.658 1.06-2.838 2.597-.188 1.596.963 2.118 2.392 2.321 7.771 1.047 15.537 2.144 24.375 3.377z" fill="#EE7142"/><path d="M134.173 69.523c4.388 6.113 9.304 6.029 12.463-.33a42.934 42.934 0 00-12.463.33z" fill="#404249"/><path d="M123.276 68.29l-9.986-3.38c-2.314-.783-2.525.58-1.958 2.156 1.174 3.284 3.56 4.517 7.007 3.693 1.652-.395 3.26-.798 4.937-2.469z" fill="#3C3F49"/></svg>
